frontend/public/svg/hand gestures/multi-touch.svg

<svg width="156" height="157" viewBox="0 0 156 157" fill="none" xmlns="http://www.w3.org/2000/svg">
<g clip-path="url(#clip0)">
<path d="M128.524 2.76981C122.445 1.58331 116.3 0.769047 110.121 0.331543C104.913 -0.121986 100.477 0.331528 96.5602 1.70984C93.3875 2.82561 91.0936 4.89043 90.1025 7.5151C89.1213 10.1109 89.4678 13.1288 91.0778 16.0134C91.2091 16.2496 91.3318 16.4918 91.4887 16.801L91.5012 16.8253C90.1498 17.4971 88.9533 18.4437 87.9891 19.6043C87.0243 20.7651 86.3128 22.1143 85.9 23.5658C84.9647 26.7163 85.6302 29.5805 87.9346 32.3194C86.152 33.6511 84.332 35.3183 84.1279 38.0296C83.9756 40.1457 84.5171 42.2536 85.6689 44.0351C85.705 44.0967 85.7411 44.1591 85.7753 44.2188C85.0441 44.274 84.2217 44.3278 83.4046 44.3823C82.5435 44.4388 81.6882 44.4952 80.9407 44.5523C76.9882 44.8549 72.8999 45.168 68.8385 45.5854C63.3567 46.1485 58.4644 46.8442 54.1102 49.6672C51.7212 51.2155 50.4378 53.4935 50.5895 55.9174C50.7404 58.3307 52.2961 60.4232 54.848 61.6585C56.5462 62.442 58.3763 62.8995 60.2435 63.0072C64.832 63.3051 70.1656 63.6189 75.4176 63.5703C81.2958 63.5158 87.0932 63.3315 93.2851 63.1352C95.5022 63.0643 97.7475 62.9951 100.022 62.9277L99.9673 63.0072C99.5597 63.5939 99.2315 64.0671 98.9171 64.5496C96.215 68.7646 95.0467 73.7809 95.6079 78.756C95.9275 82.2346 97.5112 84.5153 100.323 85.5359C101.41 85.9475 102.56 86.1654 103.723 86.1811C105.6 86.1785 107.413 85.4985 108.828 84.2659C109.757 83.4495 110.623 82.5654 111.42 81.6209L111.915 81.0637C115.605 76.9557 119.117 74.1465 122.971 72.2221C126.974 70.2236 130.962 68.059 134.821 65.9659L136.966 64.8036C141.484 62.3601 147.082 58.739 150.301 52.3732C152.184 48.6524 154.002 44.5975 154.561 40.1653C155.956 29.0988 153.367 20.042 146.646 12.4783C142.328 7.61946 136.4 4.44282 128.524 2.76981ZM109.013 63.5204C110.876 63.2113 111.881 62.0896 111.77 60.4435C111.656 58.7246 110.428 57.6686 108.401 57.5458C107.367 57.5036 106.331 57.5198 105.299 57.5944C104.651 57.6298 103.979 57.6666 103.32 57.6692C99.9646 57.6856 96.6075 57.6817 93.251 57.6797H92.8854C92.7981 57.6856 84.0813 58.2704 81.8891 58.2402C75.1327 58.1287 68.1467 58.0131 61.2537 57.8411C59.7573 57.8409 58.2737 57.5659 56.8766 57.03C55.8921 56.6184 55.3119 56.0132 55.2896 55.3694C55.2686 54.7524 55.7754 54.1388 56.6798 53.6866C58.6878 52.6018 60.8741 51.8859 63.1349 51.5731C67.7719 51.0867 72.51 50.7789 77.0919 50.4809C79.034 50.3549 80.9761 50.229 82.9163 50.0872C86.4999 49.8299 90.0822 49.5612 93.6625 49.2812L93.9047 49.2641C96.6541 49.2641 97.2881 47.4743 97.2999 46.7852C97.3163 45.8663 96.9527 44.3863 95.8829 44.064L95.7949 44.0377C94.0254 43.5496 92.3078 42.8901 90.667 42.0687C90.0277 41.7264 89.5413 41.1553 89.305 40.4698C89.0688 39.7843 89.1003 39.0349 89.393 38.3716L89.437 38.2855C89.9017 37.3732 90.3408 36.5134 91.2537 36.2056C92.4594 35.8928 93.7071 35.7751 94.9502 35.8571C95.2128 35.8571 95.4707 35.861 95.726 35.861H95.8862C97.2645 35.861 99.1514 35.8564 99.4179 33.6012C99.6706 31.4642 97.9333 30.9949 96.7551 30.676C96.6167 30.6385 96.4775 30.6005 96.3397 30.5598L95.6177 30.3511C94.4836 30.0634 93.3783 29.6737 92.315 29.1868C91.7847 28.9717 91.3088 28.6427 90.9196 28.223C90.5311 27.8034 90.2397 27.3032 90.0658 26.7583C89.8223 25.7488 90.1544 24.5878 91.0266 23.3999C91.5537 22.7016 92.2323 22.1324 93.0114 21.7351C93.7905 21.3378 94.6496 21.1229 95.5245 21.1065C95.9183 21.0764 96.3371 21.0744 96.7394 21.0731C97.6104 21.1117 98.4826 21.0215 99.3273 20.8054C99.8629 20.6283 100.354 20.3388 100.769 19.9561C101.184 19.5735 101.512 19.1067 101.731 18.5869C102.029 17.6864 101.086 16.4131 100.419 15.8217C99.8616 15.3626 99.2518 14.9713 98.6027 14.6561C98.2273 14.4552 97.8388 14.2472 97.4948 14.0168C95.915 12.9555 94.628 11.9225 94.8806 10.0132C95.1136 8.25749 96.5556 7.66088 98.228 6.96975C101.608 5.57175 105.418 5.0709 109.879 5.43451C114.604 5.81912 119.355 6.48468 124.213 7.19022C129.148 7.96128 133.858 9.78912 138.021 12.5486C142.168 15.2232 145.054 19.364 146.842 25.2067C149.75 34.7065 148.209 43.9077 142.262 52.5537C141.406 53.8986 140.27 55.0433 138.933 55.9095C133.673 58.9943 128.005 62.253 122.196 65.1947C114.461 69.1131 109.273 73.1364 105.378 78.2388C104.937 78.8118 104.407 79.3106 103.807 79.7142C103.539 79.9426 103.223 80.1074 102.883 80.1953C102.543 80.2839 102.186 80.2938 101.842 80.2242C101.51 80.0667 101.218 79.8363 100.987 79.5495C100.757 79.2627 100.595 78.9279 100.514 78.5696C100.215 77.799 100.055 76.9812 100.039 76.1549C100.104 71.6544 102.997 64.5194 109.015 63.5204H109.013Z" fill="black"/>
<path d="M100.576 93.8826C99.0511 93.311 97.4503 92.9644 95.8245 92.8548L95.1728 92.8148C90.7477 92.5437 86.1724 92.2634 81.6627 92.3035C76.6601 92.3461 71.5774 92.5194 66.6378 92.6881C64.2404 92.7701 61.8422 92.8522 59.4439 92.9191C58.5296 92.9454 57.6204 92.9395 56.5663 92.9322H56.0526C56.3539 92.5279 56.5887 92.2103 56.8131 91.8821C59.7065 87.652 61.0193 82.5391 60.521 77.4387C60.2368 73.718 58.6745 71.3939 55.7466 70.3326C52.4176 69.1256 49.4641 69.6355 46.9687 71.848C46.1778 72.5792 45.4326 73.3576 44.7372 74.18C44.5447 74.3986 44.352 74.6165 44.1591 74.8331C40.4836 78.9319 36.9682 81.7391 33.0997 83.6687C28.3412 86.042 23.6334 88.5479 19.108 91.1162L18.0927 91.6885C14.8911 93.4862 11.5799 95.3449 9.23217 98.4179C1.01939 109.175 -0.989725 120.893 3.25941 133.245C5.19706 139.203 9.12643 144.312 14.387 147.714C18.8736 150.695 23.9542 152.666 29.2774 153.49L31.0801 153.748C35.849 154.434 40.7808 155.142 45.6653 155.538C47.1466 155.658 48.4955 155.716 49.7892 155.716C53.3465 155.796 56.8854 155.187 60.2118 153.924C61.5496 153.477 62.7689 152.732 63.778 151.747C64.7872 150.761 65.5599 149.56 66.0384 148.233C66.5171 146.906 66.6884 145.488 66.5407 144.085C66.3926 142.682 65.9291 141.331 65.1843 140.133L64.5844 139.039C65.9424 138.371 67.1445 137.425 68.1126 136.262C69.0807 135.099 69.7929 133.744 70.2024 132.288C71.1147 129.217 70.4426 126.295 68.2065 123.597C72.6624 119.649 73.1435 117.19 70.4774 111.69C72.0251 111.566 73.5596 111.447 75.0803 111.332C79.2809 111.01 83.2465 110.705 87.2843 110.292C92.3971 109.767 97.3479 109.077 101.715 106.388C103.815 105.092 105.915 103.339 105.486 100.162C105.358 98.7546 104.826 97.4137 103.956 96.2999C103.085 95.1861 101.912 94.3467 100.576 93.8826ZM63.9024 106.44C62.9566 106.42 62.0141 106.559 61.1142 106.851C60.2328 107.194 58.8865 108.188 58.7959 109.23C58.7106 110.208 59.6979 111.274 60.5412 111.996C60.965 112.31 61.4523 112.529 61.9693 112.636C62.26 112.704 62.5425 112.804 62.8115 112.934L63.4114 113.262C64.473 113.783 65.4733 114.419 66.3938 115.162C66.7711 115.439 67.0697 115.811 67.2594 116.239C67.4491 116.668 67.5232 117.139 67.4753 117.605C67.3546 118.046 67.1209 118.447 66.7967 118.77C66.4731 119.092 66.0704 119.324 65.6291 119.443C64.5529 119.769 63.4381 119.948 62.3141 119.977C61.9203 120.006 61.5309 120.034 61.1457 120.074C60.8594 120.09 60.5722 120.083 60.2871 120.052C59.7477 119.971 59.197 120.007 58.6732 120.16C57.8895 120.446 56.7536 121.329 56.7503 122.177C56.7687 122.702 56.9141 123.214 57.1746 123.67C57.4351 124.126 57.8026 124.512 58.2453 124.794C59.0698 125.156 59.9268 125.439 60.805 125.638C61.4667 125.794 62.1183 125.991 62.7557 126.228C64.8265 127.051 66.1747 127.746 66.0486 129.838C65.9829 130.902 65.583 131.919 64.9062 132.742C64.2292 133.566 63.3097 134.155 62.2785 134.426C61.2283 134.648 60.1596 134.771 59.0863 134.792C58.6216 134.816 58.158 134.841 57.6979 134.88C56.2743 135.003 54.7193 135.29 54.2848 137.151C53.8352 139.087 55.3075 139.932 56.3853 140.549L56.9282 140.859C57.6398 141.245 58.3285 141.673 58.9905 142.139C60.6221 143.342 61.4391 144.651 61.2921 145.825C61.1503 146.956 60.0957 147.976 58.3229 148.696C56.5443 149.512 54.6409 150.022 52.6928 150.206C39.5798 150.731 29.8279 149.132 21.0783 145.026C15.5585 142.435 11.8095 138.097 9.61606 131.768C5.96881 121.236 7.63576 111.373 14.5713 102.456C16.4149 100.086 19.3494 98.4094 22.1887 96.7876C22.5633 96.5736 22.9353 96.361 23.3046 96.149C26.2142 94.4635 29.2826 92.9217 32.2591 91.4233C33.9143 90.5924 35.6261 89.7332 37.3188 88.8433C42.0869 86.3689 46.3075 82.9592 49.7293 78.8177L49.8187 78.7081C50.4489 77.8857 51.1576 77.1263 51.9348 76.4411C52.4489 75.9541 53.1104 75.6528 53.815 75.5839C53.9395 75.5833 54.0634 75.5997 54.1833 75.6331C54.7878 75.8045 55.295 76.4352 55.6501 77.4584C55.8683 78.034 56.001 78.6392 56.044 79.2535C56.2251 83.8958 53.1929 91.2225 47.236 92.3245C44.5607 92.8194 44.1893 94.4051 44.3481 95.6475C44.4715 96.611 45.0951 98.2453 47.8746 98.3641C49.0915 98.4179 50.3169 98.3523 51.5653 98.286C52.1429 98.2545 52.7215 98.2204 53.2991 98.2053C55.3383 98.1396 57.3771 98.0641 59.4163 97.9867L59.5686 97.9808C64.3506 97.7983 69.296 97.61 74.1549 97.6027C81.2545 97.6027 88.6783 97.8653 95.2286 98.0996L96.3516 98.1396C98.654 98.223 100.302 98.7264 100.84 100.888C99.7304 102.643 97.8579 103.251 96.3411 103.587C93.1985 104.313 90.0074 104.815 86.7933 105.09C81.8137 105.468 76.7395 105.746 71.8019 106.008C69.4082 106.14 67.0139 106.274 64.6203 106.411C64.3814 106.423 64.1426 106.43 63.9024 106.44Z" fill="black"/>
</g>
<defs>
<clipPath id="clip0">
<rect width="154.239" height="156.208" fill="white" transform="translate(0.800293 0.10376)"/>
</clipPath>
</defs>
</svg>

<svg xmlns="http://www.w3.org/2000/svg" width="156" height="157" fill="none" viewBox="0 0 156 157"><g fill="#000" clip-path="url(#a)"><path d="M128.524 2.77A152 152 0 0 0 110.121.332c-5.208-.454-9.644 0-13.56 1.378-3.174 1.116-5.467 3.18-6.459 5.805-.98 2.596-.634 5.614.976 8.498.131.237.254.479.41.788l.013.024a10.84 10.84 0 0 0-5.601 6.74c-.935 3.151-.27 6.015 2.035 8.754-1.783 1.332-3.603 3-3.807 5.71a9.77 9.77 0 0 0 1.54 6.006l.107.184c-.73.055-1.553.109-2.37.163-.862.057-1.717.113-2.464.17-3.953.303-8.041.616-12.103 1.033-5.481.563-10.374 1.26-14.728 4.082-2.389 1.548-3.672 3.826-3.52 6.25.15 2.414 1.706 4.506 4.258 5.741a14.9 14.9 0 0 0 5.395 1.35c4.589.297 9.923.61 15.175.562 5.878-.054 11.675-.239 17.867-.435q3.326-.106 6.737-.207l-.055.08a63 63 0 0 0-1.05 1.542 21.8 21.8 0 0 0-3.31 14.206c.32 3.479 1.904 5.76 4.716 6.78a10 10 0 0 0 3.4.645 7.8 7.8 0 0 0 5.105-1.915q1.395-1.227 2.592-2.645l.495-.557c3.69-4.108 7.202-6.917 11.056-8.842 4.003-1.998 7.991-4.163 11.85-6.256l2.145-1.162c4.518-2.444 10.116-6.065 13.335-12.43 1.883-3.722 3.701-7.777 4.26-12.209 1.395-11.066-1.194-20.123-7.915-27.687-4.318-4.859-10.246-8.035-18.122-9.708m-19.511 60.75c1.863-.309 2.868-1.43 2.757-3.077-.114-1.718-1.342-2.774-3.369-2.897a28 28 0 0 0-3.102.048 38 38 0 0 1-1.979.075c-3.355.017-6.712.013-10.069.01h-.366c-.087.007-8.804.591-10.996.561-6.756-.111-13.742-.227-20.635-.399-1.497 0-2.98-.275-4.377-.811-.985-.412-1.565-1.017-1.587-1.66-.021-.618.485-1.231 1.39-1.683a19.1 19.1 0 0 1 6.455-2.114c4.637-.486 9.375-.794 13.957-1.092 1.942-.126 3.884-.252 5.824-.394q5.376-.386 10.746-.806l.243-.017c2.75 0 3.383-1.79 3.395-2.479.016-.919-.347-2.399-1.417-2.721l-.088-.026a28 28 0 0 1-5.128-1.97 2.877 2.877 0 0 1-1.274-3.696l.044-.087c.465-.912.904-1.772 1.817-2.08a11.7 11.7 0 0 1 3.696-.348c.263 0 .52.004.776.004h.16c1.379 0 3.265-.005 3.532-2.26.253-2.137-1.485-2.606-2.663-2.925a19 19 0 0 1-.415-.116l-.722-.209a19.4 19.4 0 0 1-3.303-1.164 3.9 3.9 0 0 1-2.25-2.429c-.243-1.01.09-2.17.962-3.358a5.77 5.77 0 0 1 4.498-2.293c.393-.03.812-.033 1.214-.034a8.9 8.9 0 0 0 2.588-.268 3.96 3.96 0 0 0 2.404-2.218c.298-.9-.645-2.174-1.312-2.765a9 9 0 0 0-1.816-1.166 13 13 0 0 1-1.108-.64c-1.58-1.06-2.867-2.094-2.614-4.003.233-1.756 1.675-2.352 3.347-3.043 3.38-1.398 7.19-1.9 11.651-1.535 4.725.384 9.476 1.05 14.334 1.755a34.7 34.7 0 0 1 13.808 5.359c4.147 2.674 7.033 6.815 8.821 12.658 2.908 9.5 1.367 18.7-4.58 27.347a11.1 11.1 0 0 1-3.329 3.355c-5.26 3.085-10.928 6.344-16.737 9.286-7.735 3.918-12.923 7.941-16.818 13.044a6.7 6.7 0 0 1-1.571 1.475 2.32 2.32 0 0 1-1.965.51 2.42 2.42 0 0 1-1.328-1.655 7 7 0 0 1-.475-2.414c.065-4.5 2.958-11.636 8.976-12.635zm-8.437 30.363a16.8 16.8 0 0 0-4.751-1.028l-.652-.04c-4.425-.271-9-.552-13.51-.511-5.003.042-10.086.215-15.025.384-2.398.082-4.796.164-7.194.231-.914.026-1.824.02-2.878.013h-.513c.3-.404.536-.722.76-1.05a21.82 21.82 0 0 0 3.708-14.443c-.284-3.721-1.846-6.045-4.774-7.106-3.33-1.207-6.283-.698-8.778 1.515q-1.187 1.098-2.232 2.332-.288.328-.578.653c-3.675 4.099-7.19 6.906-11.06 8.836a297 297 0 0 0-13.991 7.447l-1.015.573c-3.202 1.797-6.513 3.656-8.86 6.729-8.214 10.757-10.223 22.475-5.974 34.827a27.28 27.28 0 0 0 11.128 14.469 37.2 37.2 0 0 0 14.89 5.776l1.803.258c4.769.686 9.7 1.394 14.585 1.79 1.482.12 2.83.178 4.124.178 3.557.08 7.096-.529 10.423-1.792a9.35 9.35 0 0 0 5.826-5.691 9.34 9.34 0 0 0-.854-8.1l-.6-1.094a10.78 10.78 0 0 0 5.618-6.751c.913-3.071.24-5.993-1.995-8.691 4.455-3.948 4.937-6.407 2.27-11.907q2.323-.186 4.603-.358c4.2-.322 8.166-.627 12.204-1.04 5.113-.525 10.064-1.215 14.431-3.904 2.1-1.296 4.2-3.049 3.771-6.226a7.36 7.36 0 0 0-4.91-6.28M63.902 106.44a8.5 8.5 0 0 0-2.788.411c-.881.343-2.227 1.337-2.318 2.379-.085.978.902 2.044 1.745 2.766a3.6 3.6 0 0 0 1.428.64q.437.103.843.298l.6.328a16 16 0 0 1 2.982 1.9 2.69 2.69 0 0 1 1.081 2.443 2.62 2.62 0 0 1-1.846 1.838 12.6 12.6 0 0 1-3.315.534c-.394.029-.783.057-1.168.097a5 5 0 0 1-.859-.022 3.8 3.8 0 0 0-1.614.108c-.784.286-1.92 1.169-1.923 2.017a3.24 3.24 0 0 0 1.495 2.617c.825.362 1.682.645 2.56.844q.994.234 1.95.59c2.071.823 3.42 1.518 3.294 3.61a5.065 5.065 0 0 1-3.77 4.588c-1.05.222-2.12.345-3.193.366-.464.024-.928.049-1.388.088-1.424.123-2.979.41-3.413 2.271-.45 1.936 1.023 2.781 2.1 3.398l.543.31q1.068.58 2.063 1.28c1.631 1.203 2.448 2.512 2.301 3.686-.142 1.131-1.196 2.151-2.97 2.871a17.4 17.4 0 0 1-5.63 1.51c-13.112.525-22.864-1.074-31.614-5.18-5.52-2.591-9.268-6.929-11.462-13.258-3.647-10.532-1.98-20.395 4.955-29.312 1.844-2.37 4.778-4.047 7.618-5.668l1.116-.639c2.91-1.686 5.978-3.227 8.954-4.726a297 297 0 0 0 5.06-2.58 40 40 0 0 0 12.41-10.025l.09-.11a16 16 0 0 1 2.116-2.267 3.2 3.2 0 0 1 1.88-.857q.188 0 .368.05c.605.17 1.112.801 1.467 1.824a6.3 6.3 0 0 1 .394 1.796c.181 4.642-2.851 11.968-8.808 13.07-2.675.495-3.047 2.081-2.888 3.323.123.964.747 2.598 3.527 2.717 1.217.054 2.442-.012 3.69-.078.578-.032 1.157-.066 1.734-.08q3.06-.101 6.117-.22l.153-.005c4.782-.183 9.727-.371 14.586-.378 7.1 0 14.523.262 21.074.497l1.123.04c2.302.083 3.95.586 4.488 2.748-1.11 1.755-2.982 2.363-4.499 2.699a68 68 0 0 1-9.548 1.503c-4.98.378-10.053.656-14.991.918q-3.591.198-7.182.403-.358.016-.718.029"/></g><defs><clipPath id="a"><path fill="#fff" d="M.8.104h154.24v156.208H.8z"/></clipPath></defs></svg>
